public/img/icons/ui-client-browser-icon.svg

<svg fill="none" height="64" viewBox="0 0 64 64" width="64" xmlns="http://www.w3.org/2000/svg" xmlns:xlink="http://www.w3.org/1999/xlink"><clipPath id="a"><path d="m25 27h19v18h-19z"/></clipPath><mask id="b" height="16" maskUnits="userSpaceOnUse" width="32" x="16" y="43"><path d="m48 54c0 4.4183-7.1634 5-16 5s-16-.5817-16-5 7.1634-11 16-11 16 6.5817 16 11z" fill="#fff"/></mask><path d="m5 11h54v32c0 1.1046-.8954 2-2 2h-50c-1.10457 0-2-.8954-2-2z" fill="#fff"/><path d="m5 33v-22h54v32c0 1.1046-.8954 2-2 2h-50c-1.10457 0-2-.8954-2-2v-6" stroke="#000" stroke-linecap="round" stroke-linejoin="round" stroke-width="2"/><path d="m47 5h-40c-1.10457 0-2 .89543-2 2v4h54v-4c0-1.10457-.8954-2-2-2h-6" stroke="#000" stroke-linecap="round" stroke-linejoin="round" stroke-width="2"/><g fill="#000"><circle cx="9" cy="8" r="1"/><circle cx="12" cy="8" r="1"/><circle cx="15" cy="8" r="1"/><rect height="24" rx="1" width="16" x="10" y="16"/><rect height="6" rx="1" width="24" x="30" y="16"/><rect height="14" rx="1" width="24" x="30" y="26"/><g clip-path="url(#a)" stroke="#000" stroke-width="2"><path d="m52 55c0 4.4183-7.1634 5-16 5s-16-.5817-16-5 7.1634-11 16-11 16 6.5817 16 11z"/><circle cx="36" cy="34" r="7"/></g></g><path d="m48 54c0 4.4183-7.1634 5-16 5s-16-.5817-16-5 7.1634-11 16-11 16 6.5817 16 11z" fill="#fff" stroke="#000" stroke-width="2"/><g mask="url(#b)"><ellipse cx="32" cy="43" fill="#000" rx="7" ry="5"/></g><circle cx="32" cy="33" fill="#fff" r="7" stroke="#000" stroke-width="2"/></svg>

<svg width="64" height="64" viewBox="0 0 64 64" fill="none" xmlns="http://www.w3.org/2000/svg">
<path d="M5 11H59V43C59 44.1046 58.1046 45 57 45H7C5.89543 45 5 44.1046 5 43V11Z" fill="white"/>
<path d="M5 33V11H59V43C59 44.1046 58.1046 45 57 45H7C5.89543 45 5 44.1046 5 43V37" stroke="black" stroke-width="2" stroke-linecap="round" stroke-linejoin="round"/>
<path d="M47 5H7C5.89543 5 5 5.89543 5 7V11H59V7C59 5.89543 58.1046 5 57 5H51" stroke="black" stroke-width="2" stroke-linecap="round" stroke-linejoin="round"/>
<circle cx="9" cy="8" r="1" fill="black"/>
<circle cx="12" cy="8" r="1" fill="black"/>
<circle cx="15" cy="8" r="1" fill="black"/>
<rect x="10" y="16" width="16" height="24" rx="1" fill="black"/>
<rect x="30" y="16" width="24" height="6" rx="1" fill="black"/>
<rect x="30" y="26" width="24" height="14" rx="1" fill="black"/>
<g clip-path="url(#clip0_166_75)">
<path d="M52 55C52 59.4183 44.8366 60 36 60C27.1634 60 20 59.4183 20 55C20 50.5817 27.1634 44 36 44C44.8366 44 52 50.5817 52 55Z" fill="black" stroke="black" stroke-width="2"/>
<circle cx="36" cy="34" r="7" fill="black" stroke="black" stroke-width="2"/>
</g>
<path d="M48 54C48 58.4183 40.8366 59 32 59C23.1634 59 16 58.4183 16 54C16 49.5817 23.1634 43 32 43C40.8366 43 48 49.5817 48 54Z" fill="white" stroke="black" stroke-width="2"/>
<mask id="mask0_166_75" style="mask-type:alpha" maskUnits="userSpaceOnUse" x="16" y="43" width="32" height="16">
<path d="M48 54C48 58.4183 40.8366 59 32 59C23.1634 59 16 58.4183 16 54C16 49.5817 23.1634 43 32 43C40.8366 43 48 49.5817 48 54Z" fill="white"/>
</mask>
<g mask="url(#mask0_166_75)">
<ellipse cx="32" cy="43" rx="7" ry="5" fill="black"/>
</g>
<circle cx="32" cy="33" r="7" fill="white" stroke="black" stroke-width="2"/>
<defs>
<clipPath id="clip0_166_75">
<rect width="19" height="18" fill="white" transform="translate(25 27)"/>
</clipPath>
</defs>
</svg>
